X:487
T: LAURENTIA LEBE LAURENTIA
N: E1742
O: Europa, Mitteleuropa, Deutschland
R: Scherz -, Spiel - Lied, Zaehl - Geschichte
M: 6/8
L: 1/8
K: G
D | G2GGFG | A2DD2
D | AAAAGA | B2GG2
B | d3B2
D | GGGGFG | A2DD2
D | A2AAAA | B2GG2
B | d3B2

